material/.icons/material/account-heart-outline.svg

<svg xmlns="http://www.w3.org/2000/svg" viewBox="0 0 24 24"><path d="M5 15l-.6-.5C2.4 12.6 1 11.4 1 9.9c0-1.2 1-2.2 2.2-2.2.7 0 1.4.3 1.8.8.4-.5 1.1-.8 1.8-.8C8 7.7 9 8.6 9 9.9c0 1.5-1.4 2.7-3.4 4.6L5 15M15 4a4 4 0 00-4 4 4 4 0 004 4 4 4 0 004-4 4 4 0 00-4-4m0 6.1A2.1 2.1 0 0112.9 8 2.1 2.1 0 0115 5.9a2.1 2.1 0 110 4.2m0 2.9c-2.67 0-8 1.33-8 4v3h16v-3c0-2.67-5.33-4-8-4m6.1 5.1H8.9V17c0-.64 3.1-2.1 6.1-2.1 2.97 0 6.1 1.46 6.1 2.1v1.1z"/></svg>

<?xml version="1.0" encoding="UTF-8"?><!DOCTYPE svg PUBLIC "-//W3C//DTD SVG 1.1//EN" "http://www.w3.org/Graphics/SVG/1.1/DTD/svg11.dtd"><svg xmlns="http://www.w3.org/2000/svg" xmlns:xlink="http://www.w3.org/1999/xlink" version="1.1" id="mdi-account-heart-outline" width="24" height="24" viewBox="0 0 24 24"><path d="M5,15L4.4,14.5C2.4,12.6 1,11.4 1,9.9C1,8.7 2,7.7 3.2,7.7C3.9,7.7 4.6,8 5,8.5C5.4,8 6.1,7.7 6.8,7.7C8,7.7 9,8.6 9,9.9C9,11.4 7.6,12.6 5.6,14.5L5,15M15,4A4,4 0 0,0 11,8A4,4 0 0,0 15,12A4,4 0 0,0 19,8A4,4 0 0,0 15,4M15,10.1A2.1,2.1 0 0,1 12.9,8A2.1,2.1 0 0,1 15,5.9C16.16,5.9 17.1,6.84 17.1,8C17.1,9.16 16.16,10.1 15,10.1M15,13C12.33,13 7,14.33 7,17V20H23V17C23,14.33 17.67,13 15,13M21.1,18.1H8.9V17C8.9,16.36 12,14.9 15,14.9C17.97,14.9 21.1,16.36 21.1,17V18.1Z" /></svg>
